X:1
T:T Stands for Thomas
M:2/4
L:1/8
K:G
 G2| A2 B3/2- c/2| d2 c2| d2 c3/2- B/2| A3 G|A-Bc-A| d2c-B| A3 G| A2B-c|\
 d3/2 c/2 c3/2 B/2| A2 E2| D2 F3/2 G/2|A-BA-G| A2 E2| D2||

